X: 7090
T: Christine Taylor's
R: jig
M: 6/8
K: Gmajor
dc|:BAB GDD|DGB edd|cBc DFA|Aed Bdc|
B3 GDD|DGB edd|cBc Afe|dAF Gdc:|
|:g3 dBG|gdB cAA|cBc D3|edc B2d|
g3 dBG|gdB cAA|DF/G/A fed|cAF G2d:|
|:df/g/d BGB|df/g/d cAA|cBc D3|edc B2c|
df/g/d BF/G/B|ded cAA|DFA fed|cAF GBc:|
|:g3 agf|gdc BGG|D3 AFD|edc B2d|
g3 agf|gdc BGG|DFA fed|cAF G2d:|

